packages/katcn/src/icons/svg/notifications-solid.svg

<svg width="24" height="24" viewBox="0 0 24 24" fill="none" xmlns="http://www.w3.org/2000/svg">
<path fill-rule="evenodd" clip-rule="evenodd" d="M11.9524 1C7.1384 1 3.16457 4.82088 3.16457 9.56774V12.9971L1.52829 15.4815C0.164342 17.4825 1.58497 20 3.93884 20H20.0789C21.2282 20 22.1597 19.3154 22.6338 18.454C23.1111 17.5868 23.1854 16.4216 22.4702 15.4537L20.7403 12.9816V9.56774C20.7403 7.20465 19.7214 4.97441 18.1798 3.47638C18.1703 3.46711 18.1606 3.45803 18.1507 3.44914C16.5278 1.9935 14.3785 1 11.9524 1ZM8.99999 21C8.44771 21 7.99999 21.4477 7.99999 22C7.99999 22.5523 8.44771 23 8.99999 23H15C15.5523 23 16 22.5523 16 22C16 21.4477 15.5523 21 15 21H8.99999Z" fill="black"/>
</svg>

<svg xmlns="http://www.w3.org/2000/svg" fill="none" viewBox="0 0 24 24"><path fill="#000" fill-rule="evenodd" d="M11.952 1C7.138 1 3.165 4.82 3.165 9.568v3.43l-1.637 2.484C.164 17.482 1.585 20 3.938 20h16.14c1.15 0 2.082-.685 2.556-1.546.477-.867.551-2.032-.164-3l-1.73-2.472V9.568c0-2.363-1.019-4.594-2.56-6.092l-.03-.027C16.529 1.994 14.38 1 11.953 1M9 21a1 1 0 1 0 0 2h6a1 1 0 1 0 0-2z" clip-rule="evenodd"/></svg>
